!!!!SEGMENT: Any1004a-Missa_Queramus_cum_pastoribus-Kyrie--Cambrai_3.krn
!!!id: Any1004a
!!!SMS: Cambrai 3
!!!AGN: Mass; Kyrie
!!!voices: 3-4
!!!OPR: Missa Queramus cum pastoribus (Cambrai 3)
!!!COM: Anonymous
!!!OTL: Kyrie
**kern	**kern	**kern	**kern
*part4	*part3	*part2	*part1
*staff4	*staff3	*staff2	*staff1
*I"Bassus	*I"Tenor	*I"Altus	*I"Superius
*I'B	*I'T	*I'A	*I'S
*clefF4	*clefGv2	*clefGv2	*clefG2
*k[b-]	*k[b-]	*k[b-]	*k[b-]
*F:	*F:	*F:	*F:
*M2/1	*M2/1	*M2/1	*M2/1
*met(C|)	*met(C|)	*met(C|)	*met(C|)
=1	=1	=1	=1
!!section: Kyrie I
!!!OMD: Kyrie I
0r	0r	0f	0r
=2	=2	=2	=2
0r	0r	1f	0r
.	.	1c	.
=3	=3	=3	=3
0r	0r	2.f	0cc
.	.	8eL	.
.	.	8dJ	.
.	.	2e	.
.	.	[2f	.
=4	=4	=4	=4
0r	0r	4f]	1cc
.	.	4e	.
.	.	2c	.
.	.	2.d	1f
.	.	4c	.
=5	=5	=5	=5
0r	0r	2A	1.cc
.	.	4F	.
.	.	4G	.
.	.	4A	.
.	.	4B-y	.
.	.	4c	2cc
.	.	4d	.
=6	=6	=6	=6
0r	0r	4e-X	1b-y
.	.	4f	.
.	.	2.g	.
.	.	.	1a
.	.	4f	.
.	.	[2f	.
=7	=7	=7	=7
0r	0r	2f]	1g
.	.	4e	.
.	.	4d	.
.	.	1e	2r
.	.	.	2g
=8	=8	=8	=8
0F	0r	1f	2.a
.	.	.	4b-y
.	.	2r	1cc
.	.	[2c	.
=9	=9	=9	=9
1F	0r	2c]	2a
.	.	2F	2.cc
1C	.	2G	.
.	.	.	4b-y
.	.	2A	4a
.	.	.	4g
=10	=10	=10	=10
1F	0c	2F	2.a
.	.	2A	.
.	.	.	4b-y
2E	.	2G	1cc
[2F	.	[2A	.
=11	=11	=11	=11
4F]	1c	4A]	1r
4E	.	4G	.
2C	.	2.c	.
1D	1F	.	2r
.	.	8B-yL	.
.	.	8AJ	.
.	.	2B-y	2dd
=12	=12	=12	=12
0C	1.c	2A	4ee
.	.	.	4dd
.	.	2G	4cc
.	.	.	4b-y
.	.	2A	4a
.	.	.	4g
.	2c	[2G	2cc
=13	=13	=13	=13
0r	1B-y	2G]	2dd
.	.	2d	2.ff
.	1A	4c	.
.	.	4d	4ee
.	.	4e	4dd
.	.	4f	4cc
=14	=14	=14	=14
0r	1G	2.g	2b-y
.	.	.	2.cc
.	.	8fL	.
.	.	8eJ	.
.	2r	1d	.
.	.	.	8bnXiL
.	.	.	8aJ
.	2G	.	2bni
=15	=15	=15	=15
1r	2A	2.c	0cc
.	2B-y	.	.
.	.	4d	.
1C	1c	4e	.
.	.	4f	.
.	.	2g	.
=16	=16	=16	=16
1D	1A	4g	0r
.	.	8f#iL	.
.	.	8eJ	.
.	.	2f#i	.
2E	1G	2g	.
[2C	.	2g	.
=17	=17	=17	=17
4C]	0r	1g	0cc
4D	.	.	.
2E	.	.	.
2.F	.	1c	.
4G	.	.	.
=18	=18	=18	=18
4A	0r	2r	1cc
4B-y	.	.	.
1c	.	1e	.
.	.	.	1g
4B-y	.	4d	.
4A	.	4c	.
=19	=19	=19	=19
1G	1r	2d	2r
.	.	2e	2g
1F	[1f	1A	2a
.	.	.	[2dd
=20	=20	=20	=20
2.D	1f]	1d	2dd]
.	.	.	4cc
4E	.	.	4b-y
1F	1f	2c	2a
.	.	2F	[2b-y
=21	=21	=21	=21
1r	1c	1F	4b-]
.	.	.	8aL
.	.	.	8gJ
.	.	.	4a
.	.	.	4b-y
1F	1r	2r	2cc
.	.	[2f	[2dd
=22	=22	=22	=22
2.D	1.f	2f]	2dd]
.	.	4e	4cc
4E	.	4d	4b-y
1F	.	[1c	1a
.	2f	.	.
=23	=23	=23	=23
2C	1e	2c]	2g
2E	.	2g	2.cc
2F	1d	2f	.
.	.	.	8bnXiL
.	.	.	8aJ
2G	.	2d	2bni
=24	=24	=24	=24
2C	1c	2e	1cc
2F	.	2f	.
2G	1r	2d	1r
[2A	.	[2c	.
=25	=25	=25	=25
2A]	0r	2c]	1f
2B-y	.	2.f	.
1G	.	.	1g
.	.	8eL	.
.	.	8dJ	.
.	.	2e	.
=26	=26	=26	=26
2.F	2r	1f	4a
.	.	.	4g
.	2F	.	4a
8EL	.	.	4b-y
8DJ	.	.	.
2C	2G	2e	2.cc
[2F	[2A	2f	.
.	.	.	4b-y
=27	=27	=27	=27
2F]	2A]	2c	4a
.	.	.	4g
2BB-y	2B-y	2d	1f
1C	1G	2.c	.
.	.	.	2e
.	.	4B-y	.
=28	=28	=28	=28
0F	1F	2A	1f
.	.	2F	.
.	2r	2.c	1r
.	[2c	.	.
.	.	4d	.
=29	=29	=29	=29
1r	2c]	2e	1.g
.	2c	2.f	.
2r	1c	.	.
.	.	8eL	.
.	.	8dJ	.
2C	.	2e	2g
=30	=30	=30	=30
2.F	1r	1f	1a
4G	.	.	.
2A	[1c	1F	1r
[2B-y	.	.	.
=31	=31	=31	=31
4B-]	2c]	1r	0r
4G	.	.	.
2A	2c	.	.
2.B-y	[1d	2r	.
.	.	2G	.
4A	.	.	.
=32	=32	=32	=32
2.B-y	0d]	2.d	1r
8FL	.	4e	.
8EJ	.	.	.
2.D	.	2f	[1a
.	.	[2g	.
4C	.	.	.
=33	=33	=33	=33
1D	0r	2g]	2a]
.	.	2f#i	2a
1G	.	1g	1b-y
=34	=34	=34	=34
2r	2r	1e	4a
.	.	.	4g
1A	1c	.	4a
.	.	.	4b-y
.	.	2r	4cc
.	.	.	4b-y
2A	2c	[2f	4a
.	.	.	4g
=35	=35	=35	=35
1D	0d	2f]	1a
.	.	2f	.
[1G	.	2.g	2b-y
.	.	.	[2cc
.	.	4f	.
=36	=36	=36	=36
1G]	0r	2e	4cc]
.	.	.	8bnXiL
.	.	.	8aJ
.	.	1d	2bni
1C	.	.	2cc
.	.	[2c	2ee
=37	=37	=37	=37
1D	0r	2c]	2ff
.	.	2BnXi	2dd
2C	.	1c	2.ee
[2c	.	.	.
.	.	.	4dd
=38	=38	=38	=38
4c]	2r	2r	4ee
4B-y	.	.	4dd
4A	1c	2e	4cc
4G	.	.	4b-y
2F	.	1f	4a
.	.	.	4g
2A	2c	.	[2cc
=39	=39	=39	=39
2.G	0d	1g	2cc]
.	.	.	4bnXi
4F	.	.	4a
2.G	.	2r	1bni
.	.	[2g	.
4F	.	.	.
=40	=40	=40	=40
2E	1r	4g]	2.cc
.	.	4f	.
2C	.	4e	.
.	.	4d	4b-y
1F	1c	2c	1a
.	.	[2f	.
=41	=41	=41	=41
[0Cl	[0cl	2f]	[0gl
.	.	4e	.
.	.	4d	.
.	.	2.e	.
.	.	4f	.
=42	=42	=42	=42
0C]	0c]	0el	0g]
=43||	=43||	=43||	=43||
*M2/1	*M2/1	*M2/1	*M2/1
*met(C|)	*met(C|)	*met(C|)	*met(C|)
!!section: Christe
!!!OMD: Christe
0r	0r	1.c	0r
.	.	2A	.
=44	=44	=44	=44
1r	0r	1B-y	0r
[1F	.	2.A	.
.	.	4B-y	.
=45	=45	=45	=45
2F]	0r	2c	0r
2D	.	2.d	.
1E	.	.	.
.	.	8cL	.
.	.	8B-yJ	.
.	.	2c	.
=46	=46	=46	=46
2D	0r	2f	0r
2E	.	2.g	.
1F	.	.	.
.	.	4f	.
.	.	[2f	.
=47	=47	=47	=47
1G	0r	2f]	0r
.	.	2e	.
[1F	.	1f	.
=48	=48	=48	=48
1F]	1.c	2r	0r
.	.	2f	.
1r	.	2e	.
.	2A	2c	.
=49	=49	=49	=49
2r	1B-y	2d	0r
2G	.	2e	.
2F	2A	2f	.
2D	2B-y	2F	.
=50	=50	=50	=50
2E	1c	2G	0r
2F	.	2A	.
1BB-y	1d	[1B-y	.
=51	=51	=51	=51
1F	0c	2B-]	0r
.	.	4A	.
.	.	4G	.
2r	.	1A	.
[2F	.	.	.
=52	=52	=52	=52
2F]	0r	2r	0r
2D	.	1B-y	.
1E	.	.	.
.	.	2G	.
=53	=53	=53	=53
2D	2r	2A	0r
2E	1c	2.G	.
1F	.	.	.
.	.	4F	.
.	2A	[2f	.
=54	=54	=54	=54
1G	1B-y	4f]	0r
.	.	4e	.
.	.	2.d	.
2F	2A	.	.
.	.	4c	.
2D	2B-y	2d	.
=55	=55	=55	=55
2.E-i	1c	2.G	0r
4D	.	4A	.
1BB-y	1d	2.B-y	.
.	.	8AL	.
.	.	8GJ	.
=56	=56	=56	=56
0F	1.c	1A	0r
.	.	2r	.
.	2A	[2f	.
=57	=57	=57	=57
1BB-y	2.B-y	2f]	0r
.	.	2f	.
.	4A	.	.
2r	1F	1f	.
[2F	.	.	.
=58	=58	=58	=58
2F]	1.c	2c	0r
2F	.	4F	.
.	.	4G	.
1F	.	4A	.
.	.	4B-y	.
.	2c	4c	.
.	.	4d	.
=59	=59	=59	=59
2C	1c	2e	0r
2.F	.	2A	.
.	1A	2.c	.
4G	.	.	.
4A	.	.	.
4B-y	.	4d	.
=60	=60	=60	=60
2.c	1r	4e	0r
.	.	4f	.
.	.	2g	.
4B-y	.	.	.
2A	[1c	2f	.
2G	.	[2g	.
=61	=61	=61	=61
0A	2c]	2g]	0r
.	2c	4f	.
.	.	4e	.
.	1c	4f	.
.	.	4e	.
.	.	[2f	.
=62	=62	=62	=62
1G	2.B-y	4f]	0r
.	.	8eL	.
.	.	8dJ	.
.	.	2e	.
.	4c	.	.
2.F	4d	2r	.
.	4e	.	.
.	[2f	2A	.
4E	.	.	.
=63	=63	=63	=63
2D	2f]	2B-y	0r
2C	2e	2c	.
2D	2d	2.F	.
[2F	2c	.	.
.	.	4G	.
=64	=64	=64	=64
4F]	0d	2A	0r
4E	.	.	.
4D	.	2.B-y	.
4C	.	.	.
1BB-y	.	.	.
.	.	8AL	.
.	.	8GJ	.
.	.	2F	.
=65	=65	=65	=65
1F	0c	2r	0r
.	.	2A	.
2r	.	2.A	.
2F	.	.	.
.	.	4B-y	.
=66	=66	=66	=66
2E	0r	2c	0r
1F	.	2d	.
.	.	[1c	.
4E	.	.	.
4D	.	.	.
=67	=67	=67	=67
4F	0r	1c]	0r
4E	.	.	.
2.A	.	.	.
.	.	1F	.
4G	.	.	.
[2F	.	.	.
=68	=68	=68	=68
2F]	1r	1G	0r
2E	.	.	.
[1F	2r	1F	.
.	2A	.	.
=69	=69	=69	=69
2F]	2.A	2r	0r
4E	.	2F	.
4D	4B-y	.	.
2C	2c	2G	.
2BB-y	2d	[2B-y	.
=70	=70	=70	=70
1F	0c	4B-]	0r
.	.	8AL	.
.	.	8GJ	.
.	.	2A	.
2E	.	2G	.
2C	.	[2c	.
=71	=71	=71	=71
1D	1F	4c]	0r
.	.	8BnXiL	.
.	.	8AJ	.
.	.	2Bni	.
1C	1G	2.c	.
.	.	4B-y	.
=72	=72	=72	=72
2r	1F	4A	0r
.	.	4G	.
2D	.	1f	.
2.D	2r	.	.
.	2A	4e	.
4E	.	4d	.
=73	=73	=73	=73
2F	2.A	2c	0r
2G	.	2B-y	.
.	4B-y	.	.
[1F	2c	2A	.
.	2d	4F	.
.	.	4G	.
=74	=74	=74	=74
2F]	0c	4A	0r
.	.	4B-y	.
4E	.	4c	.
4D	.	4d	.
2C	.	4e	.
.	.	4d	.
2AA	.	4c	.
.	.	4B-y	.
=75	=75	=75	=75
1D	1F	4A	0r
.	.	4F	.
.	.	1f	.
1C	1G	.	.
.	.	2e	.
=76	=76	=76	=76
0Fl	0Fl	0fl	0r
=77||	=77||	=77||	=77||
*M2/1	*M2/1	*M2/1	*M2/1
*met(C|)	*met(C|)	*met(C|)	*met(C|)
!!section: Kyrie II
!!!OMD: Kyrie II
0r	1r	0r	2.f
.	.	.	4g
.	2.F	.	2a
.	.	.	2b-y
.	4G	.	.
=78	=78	=78	=78
0r	2A	0r	2cc
.	2B-y	.	4b-y
.	.	.	4a
.	2.c	.	2g
.	.	.	[2a
.	4B-y	.	.
=79	=79	=79	=79
0r	2c	0r	4a]
.	.	.	4g
.	2.d	.	2.b-y
.	4c	.	4a
.	4B-y	.	[2a
.	4A	.	.
=80	=80	=80	=80
1r	1B-y	1d	2a]
.	.	.	2g
1D	[1A	2d	[1a
.	.	2e	.
=81	=81	=81	=81
2D	1A]	1.f	1a]
2E	.	.	.
2.F	1r	.	1r
.	.	4e	.
4G	.	4d	.
=82	=82	=82	=82
2A	0r	2c	0r
2.B-y	.	1d	.
4A	.	.	.
4G	.	[2e	.
4F	.	.	.
=83	=83	=83	=83
2G	0r	4e]	0r
.	.	4d	.
2A	.	4c	.
.	.	4B-y	.
2F	.	2A	.
2G	.	[2B-y	.
=84	=84	=84	=84
2F	0r	4B-]	0r
.	.	4A	.
2D	.	1d	.
1E	.	.	.
.	.	2c#i	.
=85	=85	=85	=85
0D	1r	0d	2r
.	.	.	2a
.	2r	.	2.a
.	2A	.	.
.	.	.	4b-y
=86	=86	=86	=86
0r	2A	0r	1.cc
.	2B-y	.	.
.	2.c	.	.
.	.	.	4b-y
.	4d	.	4a
=87	=87	=87	=87
0r	2e	2r	2g
.	2.f	2d	2.a
.	.	2.d	.
.	4e	.	4g
.	4d	.	[2b-y
.	4c	4e	.
=88	=88	=88	=88
0r	2d	2f	4b-]
.	.	.	4a
.	2e	2c	4g
.	.	.	4f
.	2c	2e	4g
.	.	.	4a
.	2d	2f	[2b-y
=89	=89	=89	=89
2r	2c	2e	2b-]
2D	2A	1f	1a
2D	1B-y	.	.
2E	.	4e	2g
.	.	4d	.
=90	=90	=90	=90
1.F	2r	1c	1a
.	2A	.	.
.	2A	1f	1r
2D	2B-y	.	.
=91	=91	=91	=91
2E	1c	2e	2r
1F	.	2c	2a
.	2c	1f	2a
4E	2d	.	2b-y
4D	.	.	.
=92	=92	=92	=92
2C	1e	2r	2.cc
2.C	.	1g	.
.	.	.	4dd
.	1c	.	2.ee-i
4D	.	.	.
4E	.	4f	.
4F	.	4e	8ddL
.	.	.	8ccJ
=93	=93	=93	=93
2G	1r	2d	2b-y
2A	.	2c	2.cc
1G	2r	1d	.
.	.	.	8bnXiL
.	.	.	8aJ
.	2B-y	.	2bni
=94	=94	=94	=94
1C	2A	1c	2cc
.	2G	.	2.cc
2r	[1A	2.c	.
.	.	.	4b-y
[2F	.	.	4a
.	.	4B-y	4g
=95	=95	=95	=95
2F]	2A]	4A	1a
.	.	4G	.
2D	2B-y	2F	.
2E	[1c	2G	2g
2F	.	2A	[2f
=96	=96	=96	=96
1C	1c]	1G	2f]
.	.	.	2e
2r	1r	4F	1f
.	.	4G	.
[2A	.	4A	.
.	.	4B-y	.
=97	=97	=97	=97
2A]	1r	4c	1a
.	.	4A	.
2F	.	2.d	.
2G	1e	.	2r
.	.	8c#iL	.
.	.	8BnXiJ	.
2A	.	2c#i	[2a
=98	=98	=98	=98
1D	2d	2.d	2a]
.	2f	.	2a
.	.	4c	.
1G	2e	4B-y	[1g
.	.	4A	.
.	2d	2B-y	.
=99	=99	=99	=99
2E	1c	2G	2g]
2F	.	1c	4f
.	.	.	4e
1G	2r	.	2d
.	2d	2B-y	[2g
=100	=100	=100	=100
2C	2c	2c	4g]
.	.	.	4a
2G	2B-y	2d	2b-y
2E	1c	1e-i	2g
2F	.	.	[2cc
=101	=101	=101	=101
1G	1r	1d	2cc]
.	.	.	2b-y
1C	1e	1c	2a
.	.	.	2g
=102	=102	=102	=102
1r	2d	2B-y	2b-y
.	2f	2d	2.a
1G	2e	2r	.
.	.	.	4g
.	2d	[2g	2b-y
=103	=103	=103	=103
2E	1c	2g]	2g
2F	.	4f	2.cc
.	.	4e	.
1G	1r	1d	.
.	.	.	8bnXiL
.	.	.	8aJ
.	.	.	2bni
=104	=104	=104	=104
1C	1r	1c	2.cc
.	.	.	8b-yL
.	.	.	8aJ
1r	2.e	2r	1g
.	.	[2c	.
.	4f	.	.
=105	=105	=105	=105
1.C	2g	4c]	1cc
.	.	4B-y	.
.	1f	2A	.
.	.	1G	2r
2C	2e	.	2cc
=106	=106	=106	=106
1D	1f	1F	2a
.	.	.	2b-y
1E	2r	2r	2g
.	2c	2G	[2cc
=107	=107	=107	=107
1F	1c	4A	4cc]
.	.	4B-y	4b-y
.	.	4c	1a
.	.	4A	.
1r	1d	1B-y	.
.	.	.	2g
=108	=108	=108	=108
2r	1e	2A	2a
2C	.	4G	1cc
.	.	4F	.
2.C	2r	1G	.
.	2c	.	4b-y
4D	.	.	4a
=109	=109	=109	=109
2E	1c	2r	2g
1F	.	2F	1a
.	1d	2.A	.
4E	.	.	4g
4D	.	4B-y	4f
=110	=110	=110	=110
2C	2e	2c	2a
2BB-y	1f	1d	1b-y
[1F	.	.	.
.	4e	4c	4a
.	4d	4B-y	4g
=111	=111	=111	=111
2F]	2.c	2f	2a
2C	.	2e	2.g
.	4B-y	.	.
2D	2A	1d	.
.	.	.	4f
2BB-y	2B-y	.	[2f
=112	=112	=112	=112
1C	1G	2.c	2f]
.	.	.	2e
.	.	4B-y	.
2r	1F	4A	2.f
.	.	4G	.
2F	.	4A	.
.	.	4B-y	4g
=113	=113	=113	=113
2.F	2r	2c	2a
.	2c	2.F	2f
4G	.	.	.
2A	1c	.	2r
.	.	4G	.
2F	.	2A	[2ff
=114	=114	=114	=114
2.B-y	1d	2r	4ff]
.	.	.	4ee
.	.	2.B-y	4dd
4A	.	.	4cc
2G	2e	.	2b-y
.	.	4c	.
2D	[2f	2d	[2a
=115	=115	=115	=115
1.F	2f]	1.c	2a]
.	4e	.	4g
.	4d	.	4f
.	2.c	.	2a
2E	.	2G	[2g
.	4B-y	.	.
=116	=116	=116	=116
2F	2A	2c	4g]
.	.	.	4f
2BB-y	2B-y	2d	1f
1C	1G	1c	.
.	.	.	2e
=117	=117	=117	=117
0Fl	0Fl	0cl	0fl
==	==	==	==
*-	*-	*-	*-
!!!system-decoration: s1,s2,s3,s4
!!!RDF**kern: i = editorial accidental
!!!RDF**kern: l = terminal long
!!!ENC: Maura Sugg
!!!END: 2026/5/13
!!!EED: Benjamin Ory
!!!EEV: 2026/05/26
!!!YEC: Copyright 2026 Irene Holzer, All Rights Reserved
!!!ONB: Translated from MusicXML on 2026/05/26
!!!verovio: header encoded
!!!header-left: Edited by Irene Holzer\n
!!!header-right:
!!!header-center:
!!muse2ps: T^@{OPR}^u^@{ONM}{. }@{OTL}^C^@{COM}^i2I150v90,90,90,120c120z18l2770t130
